resources/svg/icon-default.svg

<svg xmlns="http://www.w3.org/2000/svg" width="24" height="24" viewBox="0 0 24 24"><path d="M23 12c0 1.042-.154 2.045-.425 3h-2.101c.335-.94.526-1.947.526-3 0-4.962-4.037-9-9-9-1.706 0-3.296.484-4.655 1.314l1.858 2.686h-6.994l2.152-7 1.849 2.673c1.684-1.049 3.659-1.673 5.79-1.673 6.074 0 11 4.925 11 11zm-6.354 7.692c-1.357.826-2.944 1.308-4.646 1.308-4.962 0-9-4.038-9-9 0-1.053.191-2.06.525-3h-2.1c-.271.955-.425 1.958-.425 3 0 6.075 4.925 11 11 11 2.127 0 4.099-.621 5.78-1.667l1.853 2.667 2.152-6.989h-6.994l1.855 2.681z"/></svg>

<?xml version="1.0" encoding="utf-8"?>
<!-- Generator: Adobe Illustrator 16.0.0, SVG Export Plug-In . SVG Version: 6.00 Build 0)  -->
<!DOCTYPE svg PUBLIC "-//W3C//DTD SVG 1.1//EN" "http://www.w3.org/Graphics/SVG/1.1/DTD/svg11.dtd">
<svg version="1.1" id="Layer_1" xmlns="http://www.w3.org/2000/svg" xmlns:xlink="http://www.w3.org/1999/xlink" x="0px" y="0px"
	 width="24px" height="24px" viewBox="0 0 24 24" enable-background="new 0 0 24 24" xml:space="preserve">
<path fill="#666666" d="M23,12c0,1.042-0.154,2.045-0.425,3h-2.101C20.809,14.061,21,13.053,21,12c0-4.962-4.037-9-9-9
	c-1.706,0-3.296,0.484-4.655,1.314L9.203,7H2.209l2.152-7L6.21,2.673C7.894,1.624,9.869,1,12,1C18.074,1,23,5.925,23,12z
	 M16.646,19.691C15.289,20.518,13.702,21,12,21c-4.962,0-9-4.038-9-9c0-1.053,0.191-2.06,0.525-3h-2.1C1.154,9.955,1,10.958,1,12
	c0,6.075,4.925,11,11,11c2.127,0,4.1-0.621,5.779-1.667L19.633,24l2.152-6.989h-6.994L16.646,19.691z"/>
</svg>
